X: 13
%
U:~=!turn!
T: Athole Brose
C:Arranged by K.N. Macdonald
C:Skye set
O:Scotland
B:Keith Norman MacDonald : "The Skye collection of the best reels & strathspeys extant" : 1887
Z:Ralph Palmer
R:Reel
M:C
L:1/8
K:D
A !segno!| (GF) (.D.D) A,2 (.D.D) | (GF) (.D.D) B2 (.A.A) | (GF) (.D.D) A,2 (.D.D) | E2 (.=C.C) cG EC !segno!:|
D(.d .d)c de dc | A(.d .d)e =fd ec | A(.d .d)c de dA | =cd c2 AG EC |
A(.d .d)c de dc | A(.d .d)e =fd ec | dd =fd ec d2 | A=cdc AGEC "D.C." |]


